build/images/content/marketing/img_2.svg

<svg width="120" height="120" viewBox="0 0 120 120" fill="none" xmlns="http://www.w3.org/2000/svg">
<path d="M38.7506 30L37.5 48.75L41.25 52.5L45 48.75L43.7494 30H38.7506Z" fill="#00BBD3"/>
<path d="M95.625 39.375C87.3544 39.375 80.625 32.6456 80.625 24.375C80.625 16.1044 87.3544 9.375 95.625 9.375C103.896 9.375 110.625 16.1044 110.625 24.375C110.625 32.6456 103.896 39.375 95.625 39.375Z" fill="#00BBD3"/>
<path d="M118.125 25.6294V24.375C118.125 11.9681 108.032 1.875 95.625 1.875C83.2181 1.875 73.125 11.9681 73.125 24.375V25.6294C73.125 30.0881 74.4319 34.4044 76.905 38.1094L86.0719 51.8606C80.3344 53.4806 76.875 56.4844 76.875 60V84.2119C74.9869 82.9725 72.4463 81.9919 69.375 81.3619V70.6069C69.375 68.1019 68.3981 65.7469 66.6281 63.9769L54.375 51.7238V40.9856C64.1044 39.1087 71.25 30.5906 71.25 20.5219V8.4375C71.25 4.81875 68.3063 1.875 64.6875 1.875C61.0687 1.875 58.125 4.81875 58.125 8.4375V17.9437C58.125 22.1381 55.3894 25.7044 51.525 26.8931C53.3044 24.6525 54.375 21.8269 54.375 18.75C54.375 11.5125 48.4856 5.625 41.25 5.625C34.0144 5.625 28.125 11.5125 28.125 18.75C28.125 22.5262 29.7375 25.9237 32.2969 28.32C23.6981 29.3156 15.8719 34.2769 11.37 41.7787L2.77125 56.1113C2.18438 57.0863 1.875 58.2037 1.875 59.3456C1.875 62.8088 4.69312 65.625 8.15625 65.625H8.895C10.9987 65.625 12.9525 64.5787 14.1188 62.8294L25.7306 45.4106C26.3212 44.5219 27.1631 43.8562 28.125 43.4794V63.4875L20.9062 88.7531C20.9006 88.7719 20.8988 88.7906 20.895 88.8075C13.7531 90.21 9.375 93.4781 9.375 97.5V108.75C9.375 114.096 17.4356 118.125 28.125 118.125C35.7525 118.125 42.0225 116.066 45 112.95C47.9775 116.068 54.2475 118.125 61.875 118.125C69.5025 118.125 75.7725 116.066 78.75 112.95C81.7275 116.068 87.9975 118.125 95.625 118.125C106.314 118.125 114.375 114.096 114.375 108.75V60C114.375 56.4806 110.916 53.4806 105.178 51.8625L114.345 38.1113C116.818 34.4044 118.125 30.0881 118.125 25.6294ZM69.2925 85.1869C74.2294 86.3325 76.875 88.4156 76.875 90C76.875 92.295 71.0325 95.625 61.875 95.625C52.7175 95.625 46.875 92.295 46.875 90C46.875 88.4156 49.5206 86.3325 54.4575 85.1869C54.8681 88.9369 58.0163 91.875 61.875 91.875C65.7337 91.875 68.8819 88.9369 69.2925 85.1869ZM43.125 91.7231C41.4206 90.6019 39.1819 89.6925 36.5044 89.0606L44.4356 63.9469L54.375 73.6762V81.3619C47.3944 82.7925 43.125 86.0306 43.125 90V91.7231ZM31.875 18.75C31.875 13.5806 36.0806 9.375 41.25 9.375C46.4194 9.375 50.625 13.5806 50.625 18.75C50.625 23.9194 46.4194 28.125 41.25 28.125C36.0806 28.125 31.875 23.9194 31.875 18.75ZM24.375 90.7575C24.375 90.4275 24.42 90.1012 24.5119 89.7844L31.8037 64.2637L31.875 39.375H30C27.0244 39.375 24.2606 40.8544 22.6106 43.3294L10.9988 60.7481C10.5262 61.4531 9.74062 61.875 8.89313 61.875H8.15625C6.75937 61.875 5.625 60.7406 5.625 59.3456C5.625 58.8862 5.74875 58.4363 5.985 58.0444L14.5856 43.71C18.9656 36.4087 26.9756 31.875 35.4881 31.875L41.0812 31.8656C41.1375 31.8675 41.1919 31.875 41.25 31.875C41.3119 31.875 41.37 31.8675 41.43 31.8656H41.4375H41.4431C42.1969 31.8544 42.9356 31.7775 43.6556 31.6444L50.0569 31.005C56.7938 30.33 61.875 24.7144 61.875 17.9437V8.4375C61.875 6.88688 63.1369 5.625 64.6875 5.625C66.2381 5.625 67.5 6.88688 67.5 8.4375V20.5219C67.5 29.2444 60.9637 36.5475 52.2937 37.5131L50.625 37.6969V53.2762L63.9769 66.6281C65.04 67.6912 65.625 69.1031 65.625 70.6069V84.375C65.625 86.4431 63.9431 88.125 61.875 88.125C59.8069 88.125 58.125 86.4431 58.125 84.375V73.6762C58.125 72.675 57.7144 71.6981 56.9963 70.995L45.765 60H41.7506L31.2806 93.1556C30.8156 94.6331 29.46 95.625 27.9112 95.625C25.9613 95.625 24.375 94.0387 24.375 92.0887V90.7575ZM20.685 92.6906C20.9981 96.4238 24.0994 99.375 27.9112 99.375C31.1044 99.375 33.8944 97.3294 34.8563 94.2825L35.3681 92.6588C40.4025 93.8025 43.125 95.9175 43.125 97.5C43.125 99.795 37.2825 103.125 28.125 103.125C18.9675 103.125 13.125 99.795 13.125 97.5C13.125 95.9175 15.7631 93.8381 20.685 92.6906ZM28.125 114.375C18.9675 114.375 13.125 111.045 13.125 108.75V103.245C16.4888 105.478 21.8456 106.875 28.125 106.875C34.4044 106.875 39.7612 105.478 43.125 103.245V108.75C43.125 111.045 37.2825 114.375 28.125 114.375ZM61.875 114.375C52.7175 114.375 46.875 111.045 46.875 108.75V97.5V95.745C50.2388 97.9781 55.5956 99.375 61.875 99.375C68.1544 99.375 73.5113 97.9781 76.875 95.745V108.75C76.875 111.045 71.0325 114.375 61.875 114.375ZM95.625 114.375C86.4675 114.375 80.625 111.045 80.625 108.75V90V65.745C83.9887 67.9781 89.3456 69.375 95.625 69.375C101.904 69.375 107.261 67.9781 110.625 65.745V108.75C110.625 111.045 104.783 114.375 95.625 114.375ZM110.625 60C110.625 62.295 104.783 65.625 95.625 65.625C86.4675 65.625 80.625 62.295 80.625 60C80.625 58.4569 83.3213 56.3381 88.2881 55.185L91.1512 59.4788C92.1488 60.9788 93.8231 61.875 95.625 61.875C97.4269 61.875 99.1012 60.9787 100.101 59.4806L102.964 55.1869C107.931 56.3381 110.625 58.4531 110.625 60ZM96.9806 57.3994C96.3769 58.3069 94.875 58.3069 94.2712 57.3994L80.025 36.03C77.9644 32.9419 76.875 29.3456 76.875 25.6294V24.375C76.875 14.0363 85.2862 5.625 95.625 5.625C105.964 5.625 114.375 14.0363 114.375 24.375V25.6294C114.375 29.3438 113.286 32.94 111.225 36.03L96.9806 57.3994Z" fill="#043A52"/>
<path d="M84.375 73.125H88.125V76.875H84.375V73.125Z" fill="#043A52"/>
<path d="M84.375 80.625H88.125V106.875H84.375V80.625Z" fill="#043A52"/>
</svg>

<svg width="120" height="120" fill="none" xmlns="http://www.w3.org/2000/svg"><path d="M38.75 30L37.5 48.75l3.75 3.75L45 48.75 43.75 30h-5zm56.875 9.375c-8.27 0-15-6.73-15-15s6.73-15 15-15c8.271 0 15 6.73 15 15s-6.729 15-15 15z" fill="#00BBD3"/><path d="M118.125 25.63v-1.255c0-12.407-10.093-22.5-22.5-22.5s-22.5 10.093-22.5 22.5v1.254c0 4.46 1.307 8.775 3.78 12.48l9.167 13.752c-5.738 1.62-9.197 4.623-9.197 8.139v24.212c-1.888-1.24-4.429-2.22-7.5-2.85V70.607c0-2.505-.977-4.86-2.747-6.63L54.375 51.724V40.986A20.823 20.823 0 0071.25 20.522V8.438a6.57 6.57 0 00-6.563-6.563 6.57 6.57 0 00-6.562 6.563v9.506a9.339 9.339 0 01-6.6 8.95 13.049 13.049 0 002.85-8.144c0-7.238-5.89-13.125-13.125-13.125-7.236 0-13.125 5.887-13.125 13.125 0 3.776 1.613 7.174 4.172 9.57-8.599.996-16.425 5.957-20.927 13.459L2.771 56.11a6.268 6.268 0 00-.896 3.235 6.287 6.287 0 006.281 6.279h.739a6.268 6.268 0 005.224-2.796L25.73 45.411a5.113 5.113 0 012.394-1.932v20.008l-7.219 25.266c-.005.019-.007.038-.011.055-7.142 1.402-11.52 4.67-11.52 8.692v11.25c0 5.346 8.06 9.375 18.75 9.375 7.627 0 13.898-2.059 16.875-5.175 2.977 3.118 9.248 5.175 16.875 5.175 7.627 0 13.897-2.059 16.875-5.175 2.978 3.118 9.248 5.175 16.875 5.175 10.689 0 18.75-4.029 18.75-9.375V60c0-3.52-3.459-6.52-9.197-8.138l9.167-13.75a22.42 22.42 0 003.78-12.483zM69.293 85.186c4.936 1.145 7.582 3.229 7.582 4.813 0 2.295-5.843 5.625-15 5.625s-15-3.33-15-5.625c0-1.584 2.646-3.668 7.583-4.813.41 3.75 3.558 6.688 7.417 6.688s7.007-2.938 7.418-6.688zm-26.168 6.536c-1.704-1.121-3.943-2.03-6.62-2.662l7.93-25.114 9.94 9.73v7.685c-6.98 1.43-11.25 4.669-11.25 8.638v1.723zM31.875 18.75c0-5.17 4.206-9.375 9.375-9.375 5.17 0 9.375 4.206 9.375 9.375 0 5.17-4.206 9.375-9.375 9.375-5.17 0-9.375-4.206-9.375-9.375zm-7.5 72.007c0-.33.045-.656.137-.973l7.292-25.52.071-24.889H30a8.866 8.866 0 00-7.39 3.954L11 60.75a2.53 2.53 0 01-2.106 1.126h-.737a2.532 2.532 0 01-2.171-3.83l8.6-14.335c4.38-7.301 12.39-11.835 20.903-11.835l5.593-.01c.056.003.11.01.169.01.062 0 .12-.008.18-.01h.012a13.243 13.243 0 002.213-.22l6.4-.64a13.087 13.087 0 0011.819-13.061V8.438a2.816 2.816 0 012.813-2.813A2.816 2.816 0 0167.5 8.438v12.084a17.079 17.079 0 01-15.206 16.991l-1.669.184v15.58l13.352 13.351a5.588 5.588 0 011.648 3.979v13.768a3.754 3.754 0 01-3.75 3.75 3.754 3.754 0 01-3.75-3.75V73.676a3.77 3.77 0 00-1.129-2.681L45.765 60h-4.014L31.28 93.156a3.518 3.518 0 01-3.37 2.469 3.54 3.54 0 01-3.536-3.536v-1.332zm-3.69 1.934c.313 3.733 3.414 6.684 7.226 6.684a7.254 7.254 0 006.945-5.093l.512-1.623c5.035 1.143 7.757 3.258 7.757 4.841 0 2.295-5.843 5.625-15 5.625s-15-3.33-15-5.625c0-1.582 2.638-3.662 7.56-4.81zm7.44 21.684c-9.157 0-15-3.33-15-5.625v-5.505c3.364 2.233 8.72 3.63 15 3.63 6.28 0 11.636-1.397 15-3.63v5.505c0 2.295-5.843 5.625-15 5.625zm33.75 0c-9.157 0-15-3.33-15-5.625V95.745c3.364 2.233 8.72 3.63 15 3.63 6.28 0 11.636-1.397 15-3.63v13.005c0 2.295-5.843 5.625-15 5.625zm33.75 0c-9.157 0-15-3.33-15-5.625V65.745c3.364 2.233 8.72 3.63 15 3.63 6.279 0 11.636-1.397 15-3.63v43.005c0 2.295-5.842 5.625-15 5.625zm15-54.375c0 2.295-5.842 5.625-15 5.625-9.157 0-15-3.33-15-5.625 0-1.543 2.696-3.662 7.663-4.815l2.863 4.294a5.363 5.363 0 004.474 2.396 5.373 5.373 0 004.476-2.394l2.863-4.294c4.967 1.151 7.661 3.266 7.661 4.813zm-13.644-2.6c-.604.907-2.106.907-2.71 0L80.025 36.03a18.678 18.678 0 01-3.15-10.4v-1.255c0-10.339 8.411-18.75 18.75-18.75s18.75 8.411 18.75 18.75v1.254c0 3.715-1.089 7.311-3.15 10.401L96.981 57.4z" fill="#043A52"/><path d="M84.375 73.125h3.75v3.75h-3.75v-3.75zm0 7.5h3.75v26.25h-3.75v-26.25z" fill="#043A52"/></svg>
